X: 292
T: The Yorkshire Reel
%R: hornpipe, reel
Z: 2014 John Chambers <jc:trillian.mit.edu>
B: Preston "Twenty four Country Dances for the Year 1796" p.126 #2
F: http://www.vwml.org/browse/browse-collections-dance-tune-books/browse-prestons1796# 2014-8-10
M: C|
L: 1/8
K: A
f |\
e>A c/B/A e>Aa>f | e>A c/B/A B>FF>f |\
e>A c/B/A e>ca>e |{g}f>dB>e cAA :|
|: g |\
a>ba>e f>ef>g | a>fe>c B>FF>g |\
a>ba>e f>ef>g | a>fe>B cAA :|
% - - - - - - - - - - - - - - - - - - - - - - - - -
%%begintext align
%% Cast of 2 Cu: .| up again :| lead down the
%% middle up again :|. Allemande :|: Set corners
%% and turn :|| lead outsides :||:
%%endtext
% - - - - - - - - - - - - - - - - - - - - - - - - -

%%sep 1 1 500
%%sep 1 1 500
